X:1
T:the Duke of Richmond
T:the Duke of Richmond
T:William Marshall
C:William Marshall
%%score { 1 | ( 2 3 ) }
L:1/8
M:4/4
K:Bb
V:1 treble nm="SLOW"
V:2 bass 
V:3 bass 
V:1
 Tf2{=ef} (e/d/)(c/B/) (A/B/)(G/=E/) F2 | (F>B)(d>B) (f/e/)d/e/ [Fc]2 | %2
 Tf2 (e/d/)(c/B/) (A/B/)(G/=E/) F2 | (B,/D/F/B/) (d/f/e/d/) T[Ac]2 [FB]2 | %4
 Tf2{=ef} (e/d/)(c/B/) (A/B/)(G/=E/) F2 | (F>B)(d>B) (f/e/)d/e/ [Fc]2 | %6
 Tf2 (e/d/)(c/B/) (A/B/)(G/=E/) F2 | (B,/D/F/B/) (d/f/e/d/) T[Ac]2 [FB]2 |] %8
{B} Tc2 (B/A/)(G/F/) (F/A/)(c/d/) e2 | (d>B) (g>f) (=e/f/)g/e/ f2 | %10
 (g/f/g/a/) .b>.B (e/d/e/f/) .g.E | (c>d) (e>d) c/B/A/G/{=E} F2 | (B>d) (c>d) A/G/F/E/{=B} c2 | %13
 (c>e)(d>f) e/d/c/B/ f2 | (g/f/g/a/) (b/g/)f/e/ (d/f/g/a/) (b/f/)d/B/ | %15
 (B,/D/F/B/) (d/f/e/d/) T[Ac]2 [DB]2 |] %16
V:2
 B,,/B,/D,/B,/ F,/B,/D,/B,/ B,,/B,/E,/B,/ D,/B,/B,,/B,/ | %1
 [B,D]/F,/[B,D]/F,/ [B,D]/F,/[B,D]/F,/ [A,E]/F,/[A,E]/F,/ [A,E]/F,/[A,E]/F,/ | %2
 B,,/B,/D,/B,/ F,/B,/D,/B,/ B,,/B,/E,/B,/ D,/B,/B,,/B,/ | B,,>B, [F,B,]/D/C/B,/ F,[CE] [B,D]2 | %4
 B,,/B,/D,/B,/ F,/B,/D,/B,/ B,,/B,/E,/B,/ D,/B,/B,,/B,/ | %5
 [B,D]/F,/[B,D]/F,/ [B,D]/F,/[B,D]/F,/ [A,E]/F,/[A,E]/F,/ [A,E]/F,/[A,E]/F,/ | %6
 B,,/B,/D,/B,/ F,/B,/D,/B,/ B,,/B,/E,/B,/ D,/B,/B,,/B,/ | B,,>B, [F,B,]/D/C/B,/ F,[CE] [B,D]2 |] %8
 [CE]/F,/[CE]/F,/ [CE]/F,/[CE]/F,/ [CE]/F,/[CE]/F,/ [CE]/F,/[CE]/F,/ | %9
 [B,D]/F,/[B,D]/F,/ [B,D]/F,/[B,D]/F,/ G,/[B,C]/[B,C]/[B,C]/ A,/C/F/D/ | %10
 [B,E]>[B,E] D/B,/F/_A/ G>D E/E,/C/B,/ | F4 F2 E2 | D/^C/D/B,/ A,/G,/A,/B,/ CE A,/F,/A,/B,/ | %13
 A,/G,/A,/C/ B,/A,/B,/D/ C/A,/E/D/ D/B,/C/D/ | EE ED/C/ DB, B,2 | B,B, B,/D/C/B,/ F,E B,2 |] %16
V:3
 x8 | x8 | x8 | x8 | x8 | x8 | x8 | x8 |] x8 | x8 | x8 | A,>B, C<D E2 F,/G,/A,/F,/ | F,4 F,4 | %13
 F,4 F,4 | B,B, B,2 B,E, D,2 | B,,D, F,2 F,C B,,2 |] %16

